Adwaita++/apps/scalable/preferences-desktop-activities.svg

<svg fill="none" height="128" viewBox="0 0 128 128" width="128" xmlns="http://www.w3.org/2000/svg" xmlns:xlink="http://www.w3.org/1999/xlink">
  <linearGradient id="paint0_linear" gradientUnits="userSpaceOnUse" x1="116" x2="12" y1="117.999" y2="117.999">
    <stop offset="0" stop-color="#d5d3cf"/>
    <stop offset=".038" stop-color="#e3e2df"/>
    <stop offset=".077" stop-color="#c0bfbc"/>
    <stop offset=".923" stop-color="#c0bfbc"/>
    <stop offset=".962" stop-color="#e3e2df"/>
    <stop offset="1" stop-color="#d5d3cf"/>
  </linearGradient>
  <path d="m108 68h-88c-4.4183 0-8 3.5817-8 8v32c0 4.418 3.5817 8 8 8h88c4.418 0 8-3.582 8-8v-32c0-4.4183-3.582-8-8-8z" fill="url(#paint0_linear)"/>
  <path d="m20 10c-4.432 0-8 3.568-8 8v42 42c0 4.432 3.568 8 8 8h44 44c4.432 0 8-3.568 8-8v-42-42c0-4.432-3.568-8-8-8z" fill="#3d3846"/>
  <path d="m12 18c0-4.432 3.568-8 8-8h88c4.432 0 8 3.568 8 8v42h-104z" fill="#3584e4"/>
  <g clip-rule="evenodd" fill-rule="evenodd">
    <path d="m51.8586 17.0015c-1.2111.2311-2.08 1.3005-2.0583 2.5333v32.9323c.0002 1.399 1.1343 2.5331 2.5333 2.5333h25.3326c1.399-.0002 2.5331-1.1343 2.5332-2.5333v-23.9076c.0157-.6778-.2409-1.3336-.7125-1.8208l-9.0247-9.0247c-.4871-.4716-1.143-.7282-1.8208-.7125h-16.3078c-.0791-.0025-.1583-.0025-.2374 0-.0791-.0025-.1583-.0025-.2374 0zm.5506 2.5635 10.0564.0603v10.5175l-1.3458 1.3458-1.3458-1.1875v-5.8581h-2.5332v6.4914.5542l.3958.3958 2.6124 2.2958.95.7916.7916-.8708 2.6124-2.6124.3959-.3167v-.5541-10.9774l2.5797.0155-.0455 9.9663 2.5323.0338v7.6116h-16.3079v2.5332h17.5745 1.2666v-1.2666-8.8444l5.1739.069-.091 22.6781-25.1812.0456z" fill="#241f31" opacity=".5"/>
    <path d="m46 85.625c0-10.4779 8.5221-19 19-19s19 8.5221 19 19-8.5221 19-19 19-19-8.5221-19-19zm35.4189-1.2667c-.5651-7.466-6.0854-13.5245-13.2899-14.9045 3.8455 4.6723 6.0003 9.9029 6.2885 14.9045zm-19.5493-14.9042c-3.8446 4.6738-5.9976 9.9044-6.2867 14.9042h-7.0018c.565-7.4655 6.0847-13.5237 13.2885-14.9042zm-3.7478 14.9042c.3215-4.7996 2.6271-10.0303 6.8784-14.6367 4.2535 4.607 6.5575 9.8384 6.8782 14.6367zm-2.5273 2.5334h-7.0139c.1315 1.7295.5359 3.4301 1.2008 5.038.8265 1.999 2.0394 3.8153 3.569 5.3449s3.3459 2.7424 5.3449 3.5694c1.0245.423 2.0867.741 3.17.95-3.8673-4.6936-5.9456-9.8562-6.2708-14.9023zm9.4055 14.6383c-4.302-4.6468-6.5138-9.7518-6.8668-14.6383h13.7334c-.3534 4.8877-2.5652 9.9922-6.8666 14.6383zm16.4189-14.6383c-.565 7.4647-6.0834 13.5223-13.2861 14.9033 3.8675-4.6942 5.9478-9.8578 6.2728-14.9033z" fill="#241f31" opacity=".5"/>
    <path d="m50.8586 16.0015c-1.2111.2311-2.08 1.3005-2.0583 2.5333v32.9323c.0002 1.399 1.1343 2.5331 2.5333 2.5333h25.3326c1.399-.0002 2.5331-1.1343 2.5332-2.5333v-23.9076c.0157-.6778-.2409-1.3336-.7125-1.8208l-9.0247-9.0247c-.4871-.4716-1.143-.7282-1.8208-.7125h-16.3078c-.0791-.0025-.1583-.0025-.2374 0-.0791-.0025-.1583-.0025-.2374 0zm.5506 2.5635 10.0564.0603v10.5175l-1.3458 1.3458-1.3458-1.1875v-5.8581h-2.5332v6.4914.5542l.3958.3958 2.6124 2.2958.95.7916.7916-.8708 2.6124-2.6124.3959-.3167v-.5541-10.9774l2.5797.0155-.0455 9.9663 2.5323.0338v7.6116h-16.3079v2.5332h17.5745 1.2666v-1.2666-8.8444l5.1739.069-.091 22.6781-25.1812.0456z" fill="#f6f5f4"/>
    <path d="m45 84.625c0-10.4779 8.5221-19 19-19s19 8.5221 19 19-8.5221 19-19 19-19-8.5221-19-19zm35.4189-1.2667c-.5651-7.466-6.0854-13.5245-13.2899-14.9045 3.8455 4.6723 6.0003 9.9029 6.2885 14.9045zm-19.5493-14.9042c-3.8446 4.6738-5.9976 9.9044-6.2867 14.9042h-7.0018c.565-7.4655 6.0847-13.5237 13.2885-14.9042zm-3.7478 14.9042c.3215-4.7996 2.6271-10.0303 6.8784-14.6367 4.2535 4.607 6.5575 9.8384 6.8782 14.6367zm-2.5273 2.5334h-7.0139c.1315 1.7295.5359 3.4301 1.2008 5.038.8265 1.999 2.0394 3.8153 3.569 5.3449s3.3459 2.7425 5.3449 3.569c1.0245.4234 2.0867.7414 3.17.9504-3.8673-4.6936-5.9456-9.8562-6.2708-14.9023zm9.4055 14.6383c-4.302-4.6468-6.5138-9.7518-6.8668-14.6383h13.7334c-.3534 4.8877-2.5652 9.9922-6.8666 14.6383zm16.4189-14.6383c-.565 7.4647-6.0834 13.5224-13.2861 14.9033 3.8675-4.6942 5.9478-9.8578 6.2728-14.9033z" fill="#f6f5f4"/>
  </g>
</svg>

<svg width="128" height="128" viewBox="0 0 128 128" fill="none" xmlns="http://www.w3.org/2000/svg">
<path d="M108 68H20C15.5817 68 12 71.5817 12 76V108C12 112.418 15.5817 116 20 116H108C112.418 116 116 112.418 116 108V76C116 71.5817 112.418 68 108 68Z" fill="url(#paint0_linear)"/>
<path d="M20 10C15.568 10 12 13.568 12 18V60V102C12 106.432 15.568 110 20 110H64H108C112.432 110 116 106.432 116 102V60V18C116 13.568 112.432 10 108 10H20Z" fill="url(#paint1_linear)"/>
<path d="M12 18C12 13.568 15.568 10 20 10H108C112.432 10 116 13.568 116 18V60H12V18Z" fill="#3584E4"/>
<path opacity="0.5" fill-rule="evenodd" clip-rule="evenodd" d="M51.8586 17.0015C50.6475 17.2326 49.7786 18.302 49.8003 19.5348V52.4671C49.8005 53.8661 50.9346 55.0002 52.3336 55.0004H77.6662C79.0652 55.0002 80.1993 53.8661 80.1994 52.4671V28.5595C80.2151 27.8817 79.9585 27.2259 79.4869 26.7387L70.4622 17.714C69.9751 17.2424 69.3192 16.9858 68.6414 17.0015H52.3336C52.2545 16.999 52.1753 16.999 52.0962 17.0015C52.0171 16.999 51.9379 16.999 51.8588 17.0015H51.8586ZM52.4092 19.565L62.4656 19.6253V30.1428L61.1198 31.4886L59.774 30.3011V24.443H57.2408V30.9344V31.4886L57.6366 31.8844L60.249 34.1802L61.199 34.9718L61.9906 34.101L64.603 31.4886L64.9989 31.1719V30.6178V19.6404L67.5786 19.6559L67.5331 29.6222L70.0654 29.656V37.2676H53.7575V39.8008H71.332H72.5986V38.5342V29.6898L77.7725 29.7588L77.6815 52.4369L52.5003 52.4825L52.4092 19.565Z" fill="url(#paint2_linear)"/>
<path opacity="0.5" fill-rule="evenodd" clip-rule="evenodd" d="M46 85.625C46 75.1471 54.5221 66.625 65 66.625C75.4779 66.625 84 75.1471 84 85.625C84 96.1029 75.4779 104.625 65 104.625C54.5221 104.625 46 96.1029 46 85.625ZM81.4189 84.3583C80.8538 76.8923 75.3335 70.8338 68.129 69.4538C71.9745 74.1261 74.1293 79.3567 74.4175 84.3583H81.4189ZM61.8696 69.4541C58.025 74.1279 55.872 79.3585 55.5829 84.3583H48.5811C49.1461 76.8928 54.6658 70.8346 61.8696 69.4541ZM58.1218 84.3583C58.4433 79.5587 60.7489 74.328 65.0002 69.7216C69.2537 74.3286 71.5577 79.56 71.8784 84.3583H58.1218ZM55.5945 86.8917H48.5806C48.7121 88.6212 49.1165 90.3218 49.7814 91.9297C50.6079 93.9287 51.8208 95.745 53.3504 97.2746C54.88 98.8042 56.6963 100.017 58.6953 100.844C59.7198 101.267 60.782 101.585 61.8653 101.794C57.998 97.1004 55.9197 91.9378 55.5945 86.8917ZM65 101.53C60.698 96.8832 58.4862 91.7782 58.1332 86.8917H71.8666C71.5132 91.7794 69.3014 96.8839 65 101.53ZM81.4189 86.8917C80.8539 94.3564 75.3355 100.414 68.1328 101.795C72.0003 97.1008 74.0806 91.9372 74.4056 86.8917H81.4189Z" fill="url(#paint3_linear)"/>
<path fill-rule="evenodd" clip-rule="evenodd" d="M50.8586 16.0015C49.6475 16.2326 48.7786 17.302 48.8003 18.5348V51.4671C48.8005 52.8661 49.9346 54.0002 51.3336 54.0004H76.6662C78.0652 54.0002 79.1993 52.8661 79.1994 51.4671V27.5595C79.2151 26.8817 78.9585 26.2259 78.4869 25.7387L69.4622 16.714C68.9751 16.2424 68.3192 15.9858 67.6414 16.0015H51.3336C51.2545 15.999 51.1753 15.999 51.0962 16.0015C51.0171 15.999 50.9379 15.999 50.8588 16.0015H50.8586ZM51.4092 18.565L61.4656 18.6253V29.1428L60.1198 30.4886L58.774 29.3011V23.443H56.2408V29.9344V30.4886L56.6366 30.8844L59.249 33.1802L60.199 33.9718L60.9906 33.101L63.603 30.4886L63.9989 30.1719V29.6178V18.6404L66.5786 18.6559L66.5331 28.6222L69.0654 28.656V36.2676H52.7575V38.8008H70.332H71.5986V37.5342V28.6898L76.7725 28.7588L76.6815 51.4369L51.5003 51.4825L51.4092 18.565Z" fill="url(#paint4_linear)"/>
<path fill-rule="evenodd" clip-rule="evenodd" d="M45 84.625C45 74.1471 53.5221 65.625 64 65.625C74.4779 65.625 83 74.1471 83 84.625C83 95.1029 74.4779 103.625 64 103.625C53.5221 103.625 45 95.1029 45 84.625ZM80.4189 83.3583C79.8538 75.8923 74.3335 69.8338 67.129 68.4538C70.9745 73.1261 73.1293 78.3567 73.4175 83.3583H80.4189ZM60.8696 68.4541C57.025 73.1279 54.872 78.3585 54.5829 83.3583H47.5811C48.1461 75.8928 53.6658 69.8346 60.8696 68.4541ZM57.1218 83.3583C57.4433 78.5587 59.7489 73.328 64.0002 68.7216C68.2537 73.3286 70.5577 78.56 70.8784 83.3583H57.1218ZM54.5945 85.8917H47.5806C47.7121 87.6212 48.1165 89.3218 48.7814 90.9297C49.6079 92.9287 50.8208 94.745 52.3504 96.2746C53.88 97.8042 55.6963 99.0171 57.6953 99.8436C58.7198 100.267 59.782 100.585 60.8653 100.794C56.998 96.1004 54.9197 90.9378 54.5945 85.8917ZM64 100.53C59.698 95.8832 57.4862 90.7782 57.1332 85.8917H70.8666C70.5132 90.7794 68.3014 95.8839 64 100.53ZM80.4189 85.8917C79.8539 93.3564 74.3355 99.4141 67.1328 100.795C71.0003 96.1008 73.0806 90.9372 73.4056 85.8917H80.4189Z" fill="url(#paint5_linear)"/>
<defs>
<linearGradient id="paint0_linear" x1="116" y1="117.999" x2="12" y2="117.999" gradientUnits="userSpaceOnUse">
<stop stop-color="#D5D3CF"/>
<stop offset="0.038" stop-color="#E3E2DF"/>
<stop offset="0.077" stop-color="#C0BFBC"/>
<stop offset="0.923" stop-color="#C0BFBC"/>
<stop offset="0.962" stop-color="#E3E2DF"/>
<stop offset="1" stop-color="#D5D3CF"/>
</linearGradient>
<linearGradient id="paint1_linear" x1="12" y1="60" x2="116" y2="60" gradientUnits="userSpaceOnUse">
<stop stop-color="#3D3846"/>
</linearGradient>
<linearGradient id="paint2_linear" x1="49.7999" y1="36" x2="80.2001" y2="36" gradientUnits="userSpaceOnUse">
<stop stop-color="#241F31"/>
</linearGradient>
<linearGradient id="paint3_linear" x1="46" y1="85.625" x2="84" y2="85.625" gradientUnits="userSpaceOnUse">
<stop stop-color="#241F31"/>
</linearGradient>
<linearGradient id="paint4_linear" x1="48.7999" y1="35" x2="79.2001" y2="35" gradientUnits="userSpaceOnUse">
<stop stop-color="#F6F5F4"/>
</linearGradient>
<linearGradient id="paint5_linear" x1="45" y1="84.625" x2="83" y2="84.625" gradientUnits="userSpaceOnUse">
<stop stop-color="#F6F5F4"/>
</linearGradient>
</defs>
</svg>
